Resources/app/storefront/src/assets/icon/icon-pack/ic-discount.svg

<svg width="24" height="24" viewBox="0 0 24 24" fill="none" xmlns="http://www.w3.org/2000/svg">
<path d="M9 15L15 9" stroke="#2C3E50" stroke-width="1.5" stroke-linecap="round" stroke-linejoin="round"/>
<circle cx="9.5" cy="9.5" r="0.5" stroke="#2C3E50" stroke-width="1.5" stroke-linecap="round" stroke-linejoin="round"/>
<circle cx="14.5" cy="14.5" r="0.5" stroke="#2C3E50" stroke-width="1.5" stroke-linecap="round" stroke-linejoin="round"/>
<path d="M4.99997 7.20046C4.99997 5.98543 5.98495 5.00046 7.19997 5.00046H8.19997C8.78087 5.00013 9.33806 4.77006 9.74997 4.36046L10.45 3.66046C10.8629 3.2452 11.4244 3.01172 12.01 3.01172C12.5956 3.01172 13.157 3.2452 13.57 3.66046L14.27 4.36046C14.6819 4.77006 15.2391 5.00013 15.82 5.00046H16.82C18.035 5.00046 19.02 5.98543 19.02 7.20046V8.20046C19.0203 8.78136 19.2504 9.33855 19.66 9.75046L20.36 10.4505C20.7752 10.8634 21.0087 11.4248 21.0087 12.0105C21.0087 12.5961 20.7752 13.1575 20.36 13.5705L19.66 14.2705C19.2504 14.6824 19.0203 15.2396 19.02 15.8205V16.8205C19.02 18.0355 18.035 19.0205 16.82 19.0205H15.82C15.2391 19.0208 14.6819 19.2509 14.27 19.6605L13.57 20.3605C13.157 20.7757 12.5956 21.0092 12.01 21.0092C11.4244 21.0092 10.8629 20.7757 10.45 20.3605L9.74997 19.6605C9.33806 19.2509 8.78087 19.0208 8.19997 19.0205H7.19997C5.98495 19.0205 4.99997 18.0355 4.99997 16.8205V15.8205C4.99964 15.2396 4.76957 14.6824 4.35997 14.2705L3.65997 13.5705C3.24472 13.1575 3.01123 12.5961 3.01123 12.0105C3.01123 11.4248 3.24472 10.8634 3.65997 10.4505L4.35997 9.75046C4.76957 9.33855 4.99964 8.78136 4.99997 8.20046V7.20046" stroke="#2C3E50" stroke-width="1.5" stroke-linecap="round" stroke-linejoin="round"/>
</svg>

<?xml version="1.0" encoding="UTF-8"?><svg width="24" height="24" viewBox="0 0 24 24" fill="none" xmlns="http://www.w3.org/2000/svg"><path d="m9 15 6-6" stroke="currentColor" stroke-width="1.5" stroke-linecap="round" stroke-linejoin="round"/><circle cx="9.5" cy="9.5" r=".5" stroke="currentColor" stroke-width="1.5" stroke-linecap="round" stroke-linejoin="round"/><circle cx="14.5" cy="14.5" r=".5" stroke="currentColor" stroke-width="1.5" stroke-linecap="round" stroke-linejoin="round"/><path d="M5 7.2A2.2 2.2 0 0 1 7.2 5h1a2.2 2.2 0 0 0 1.55-.64l.7-.7a2.2 2.2 0 0 1 3.12 0l.7.7c.412.41.97.64 1.55.64h1a2.2 2.2 0 0 1 2.2 2.2v1c0 .581.23 1.139.64 1.55l.7.7a2.2 2.2 0 0 1 0 3.12l-.7.7a2.2 2.2 0 0 0-.64 1.55v1a2.2 2.2 0 0 1-2.2 2.2h-1a2.2 2.2 0 0 0-1.55.64l-.7.7a2.2 2.2 0 0 1-3.12 0l-.7-.7a2.2 2.2 0 0 0-1.55-.64h-1a2.2 2.2 0 0 1-2.2-2.2v-1a2.2 2.2 0 0 0-.64-1.55l-.7-.7a2.2 2.2 0 0 1 0-3.12l.7-.7A2.2 2.2 0 0 0 5 8.2v-1" stroke="currentColor" stroke-width="1.5" stroke-linecap="round" stroke-linejoin="round"/></svg>
